X:871
T:Polkett
T:efter Pelle Fors
Z:Björn Ek 2008-12-31
O:Vikbolandet, Östergötland
S:efter Pelle Fors
B:Låtar efter Pelle Fors
R:Polka
M:2/4
L:1/16
K:G
%
|:D3F F2Ac|e3d d2B2|(de)dB c2A2|(cd)cA B3G|
G3F F2(Ac)|e3d d2B2|(de)dB c2DF|1A2G2 G4 :|2A2G2 G2Bd||
%
|:g3B d3G|B2A2 (AB)cd|(ed)(dc) (cA)FA|(GA)Bc d2Bd|
g3B d3G  |B2A2 (AB)cd|(ed)(dc) (cA)FA|1(GA)GF G2(Bd):|2(GA)GF G4||
%
(:musicend:)

(:music:)
